X:0770
M:9/8
L:1/8
Q:3/8=96
K:G
e| dBG      G>AG (e/f/g>)e| dBG      GBG TA2e|dBG G>AG (e/f/g>)e| dBG     TA>GE G2e|
   dBG      GBG  Te>fg    | dBG      GBG TA2e|dBG G>AG (e/f/g>)e| dBG      A>GE G2|]

